front/src/Assets/image/payment/visa-logo.svg

<svg width="50" height="17" viewBox="0 0 50 17" fill="none" xmlns="http://www.w3.org/2000/svg">
<path fill-rule="evenodd" clip-rule="evenodd" d="M13.1329 16.3774H8.89223L5.71226 3.99286C5.56133 3.42318 5.24085 2.91954 4.76944 2.68217C3.59298 2.08565 2.29659 1.61091 0.882355 1.37148V0.894676H7.7137C8.65652 0.894676 9.36364 1.61091 9.48149 2.44274L11.1314 11.3761L15.37 0.894676H19.4928L13.1329 16.3774ZM21.8499 16.3774H17.8449L21.1428 0.894676H25.1477L21.8499 16.3774ZM30.3291 5.18385C30.4469 4.34996 31.1541 3.87315 31.979 3.87315C33.2754 3.75344 34.6876 3.99287 35.8661 4.58733L36.5732 1.25383C35.3947 0.777031 34.0983 0.537598 32.9219 0.537598C29.0348 0.537598 26.2063 2.68218 26.2063 5.65859C26.2063 7.92288 28.2098 9.1118 29.624 9.82803C31.1541 10.5422 31.7433 11.019 31.6255 11.7332C31.6255 12.8044 30.4469 13.2812 29.2705 13.2812C27.8562 13.2812 26.442 12.9242 25.1477 12.3276L24.4406 15.6632C25.8548 16.2576 27.3848 16.4971 28.7991 16.4971C33.1576 16.6147 35.8661 14.4722 35.8661 11.2564C35.8661 7.20665 30.3291 6.96928 30.3291 5.18385ZM49.8824 16.3774L46.7024 0.894676H43.2867C42.5796 0.894676 41.8725 1.37148 41.6368 2.08565L35.7482 16.3774H39.871L40.6939 14.1151H45.7596L46.231 16.3774H49.8824ZM43.876 5.06414L45.0524 10.8993H41.7546L43.876 5.06414Z" fill="white"/>
</svg>

<svg xmlns="http://www.w3.org/2000/svg" fill="none" viewBox="0 0 50 17">
  <path fill="#fff" fill-rule="evenodd" d="M13.133 16.377h-4.24L5.712 3.993c-.152-.57-.472-1.073-.944-1.31C3.593 2.085 2.297 1.61.882 1.37V.895h6.832c.943 0 1.65.716 1.767 1.548l1.65 8.933L15.37.895h4.123l-6.36 15.482zm8.717 0h-4.005L21.143.895h4.005L21.85 16.377zm8.48-11.193c.117-.834.824-1.31 1.649-1.31 1.296-.12 2.709.119 3.887.713l.707-3.333a9.956 9.956 0 00-3.651-.716c-3.887 0-6.716 2.144-6.716 5.12 0 2.265 2.004 3.454 3.418 4.17 1.53.714 2.12 1.191 2.002 1.905 0 1.071-1.18 1.548-2.356 1.548-1.414 0-2.828-.357-4.122-.953l-.707 3.335c1.414.595 2.944.834 4.358.834 4.359.118 7.067-2.025 7.067-5.24 0-4.05-5.537-4.288-5.537-6.073zm19.552 11.193L46.702.895h-3.415c-.707 0-1.414.476-1.65 1.19l-5.889 14.292h4.123l.823-2.262h5.066l.471 2.262h3.651zM43.876 5.064l1.176 5.835h-3.297l2.121-5.835z" clip-rule="evenodd"/>
</svg>
